X: 6
T: The Dutch
P: piffero primo a0466
O: strube
%R: march
F: http://ancients.sudburymuster.org/mus/ssp/pdf/struberevF.pdf
Z: 2019 John Chambers <jc:trillian.mit.edu>
M: 3/8
L: 1/16
K: D
d2 |\
A4FA | d4Ad | e2d2e2 | fefga2 |\
A4FA | d4Ad | e2d2e2 | d4 :|
|: de |\
f2fedc | B4cd | efedcB | A4A2 |\
dAFAdf | ecAceg | f2fgfe | d4 :|

%%slurgraces 1
%%graceslurs 1
%%center (the rolls)


